icons/linear-ele-arrow-exchange-double.svg

<svg xmlns="http://www.w3.org/2000/svg" width="32px" height="32px" viewBox="0 0 32 32" version="1.1">
    <title>linear-ele-arrow-exchange-double</title>
    <g id="linear-ele-arrow-exchange-double" stroke-width="1" fill-rule="evenodd">
        <path d="M21,3 C21,2.10909515 22.0771419,1.66292836 22.7071068,2.29289322 L31.2071068,10.7928932 C31.5976311,11.1834175 31.5976311,11.8165825 31.2071068,12.2071068 L22.7071068,20.7071068 C22.0771419,21.3370716 21,20.8909049 21,20 L21,17 L10,17 C9.48716416,17 9.06449284,16.6139598 9.00672773,16.1166211 L9,16 L9,14.414 L2.915,20.5 L9,26.585 L9,25 C9,24.4871642 9.38604019,24.0644928 9.88337887,24.0067277 L10,24 L22,24 C22.5522847,24 23,24.4477153 23,25 C23,25.5522847 22.5522847,26 22,26 L11,26 L11,29 C11,29.8521699 10.0144864,30.2974338 9.37747324,29.7832252 L9.29289322,29.7071068 L0.792893219,21.2071068 C0.402368927,20.8165825 0.402368927,20.1834175 0.792893219,19.7928932 L9.29289322,11.2928932 C9.92285808,10.6629284 11,11.1090951 11,12 L11,15 L22,15 C22.5128358,15 22.9355072,15.3860402 22.9932723,15.8833789 L23,16 L23,17.584 L29.085,11.5 L23,5.415 L23,7 C23,7.51283584 22.6139598,7.93550716 22.1166211,7.99327227 L22,8 L10,8 C9.44771525,8 9,7.55228475 9,7 C9,6.44771525 9.44771525,6 10,6 L21,6 L21,3 Z" id="&#36335;&#24452;-7" fill-rule="nonzero" />
    </g>
</svg>

<svg xmlns="http://www.w3.org/2000/svg" viewBox="0 0 32 32"><path fill="currentColor" d="M21 3c0-.89 1.077-1.337 1.707-.707l8.5 8.5a1 1 0 0 1 0 1.414l-8.5 8.5c-.63.63-1.707.184-1.707-.707v-3H10a1 1 0 0 1-.993-.883L9 16v-1.586L2.915 20.5 9 26.585V25a1 1 0 0 1 .883-.993L10 24h12a1 1 0 0 1 0 2H11v3c0 .852-.986 1.297-1.623.783l-.084-.076-8.5-8.5a1 1 0 0 1 0-1.414l8.5-8.5c.63-.63 1.707-.184 1.707.707v3h11a1 1 0 0 1 .993.883L23 16v1.584l6.085-6.084L23 5.415V7a1 1 0 0 1-.883.993L22 8H10a1 1 0 1 1 0-2h11z"/></svg>
